Assets/ico-forward.svg

<svg width="24" height="24" viewBox="0 0 24 24" fill="none" xmlns="http://www.w3.org/2000/svg">
	<path
		d="M21.5 4.5C21.5 3.94772 21.0523 3.5 20.5 3.5H19.5C18.9477 3.5 18.5 3.94772 18.5 4.5V19.5C18.5 20.0523 18.9477 20.5 19.5 20.5H20.5C21.0523 20.5 21.5 20.0523 21.5 19.5V4.5Z"
		fill="white" />
	<path
		d="M3 5.86854C3 4.27115 4.78029 3.31836 6.1094 4.20444L15.3066 10.3359C16.4941 11.1276 16.4941 12.8725 15.3066 13.6641L6.1094 19.7956C4.78029 20.6817 3 19.7289 3 18.1315V5.86854Z"
		fill="white" />
</svg>

<svg xmlns="http://www.w3.org/2000/svg" width="24" height="24" fill="none" viewBox="0 0 24 24"><path fill="#fff" d="M21.5 4.5a1 1 0 0 0-1-1h-1a1 1 0 0 0-1 1v15a1 1 0 0 0 1 1h1a1 1 0 0 0 1-1zM3 5.869c0-1.598 1.78-2.55 3.11-1.665l9.197 6.132a2 2 0 0 1 0 3.328l-9.198 6.132C4.78 20.682 3 19.729 3 18.13z"/></svg>
